apps/scalable/gv_icon.svg

<?xml version="1.0" standalone="no"?><!-- Generator: Gravit.io --><svg xmlns="http://www.w3.org/2000/svg" xmlns:xlink="http://www.w3.org/1999/xlink" style="isolation:isolate" viewBox="0 0 256 256" width="256" height="256"><defs><filter id="Cqcx2jjxQRPJrreAmMSvR9B4v93S9vqU" x="-200%" y="-200%" width="400%" height="400%" filterUnits="objectBoundingBox" color-interpolation-filters="sRGB"><feGaussianBlur xmlns="http://www.w3.org/2000/svg" in="SourceGraphic" stdDeviation="4.294"/><feOffset xmlns="http://www.w3.org/2000/svg" dx="0" dy="4" result="pf_100_offsetBlur"/><feFlood xmlns="http://www.w3.org/2000/svg" flood-color="#000000" flood-opacity="0.4"/><feComposite xmlns="http://www.w3.org/2000/svg" in2="pf_100_offsetBlur" operator="in" result="pf_100_dropShadow"/><feBlend xmlns="http://www.w3.org/2000/svg" in="SourceGraphic" in2="pf_100_dropShadow" mode="normal"/></filter></defs><g filter="url(#Cqcx2jjxQRPJrreAmMSvR9B4v93S9vqU)"><path d=" M 165.685 11.947 C 239.74 11.947 250.324 22.504 250.324 96.491 L 250.324 155.742 C 250.324 229.728 239.74 240.285 165.685 240.285 L 90.315 240.285 C 16.26 240.285 5.676 229.728 5.676 155.742 L 5.676 96.491 C 5.676 22.504 16.26 11.947 90.315 11.947 L 165.685 11.947 L 165.685 11.947 Z " id="Path" fill="rgb(247,247,247)"/></g><path d=" M 165.685 11.947 C 227.597 11.947 245.147 19.326 249.237 64.979 C 243.358 64.07 -0.721 64.431 6.723 65.432 C 10.738 19.375 28.198 11.947 90.315 11.947 L 165.685 11.947 L 165.685 11.947 Z " id="Path" fill="rgb(55,166,230)"/><path d=" M 114.014 94.625 L 114.014 98.703 L 211.874 98.703 L 211.874 94.625 L 114.014 94.625 L 114.014 94.625 Z  M 114.014 110.935 L 114.014 115.012 L 211.874 115.012 L 211.874 110.935 L 114.014 110.935 L 114.014 110.935 Z  M 114.014 127.169 L 114.014 131.247 L 211.874 131.247 L 211.874 127.169 L 114.014 127.169 L 114.014 127.169 Z  M 114.014 143.479 L 114.014 147.557 L 211.874 147.557 L 211.874 143.479 L 114.014 143.479 L 114.014 143.479 Z  M 48.775 157.671 L 48.775 161.748 L 146.634 161.748 L 146.634 157.671 L 48.775 157.671 L 48.775 157.671 Z  M 48.775 173.98 L 48.775 178.058 L 141.842 177.903 L 141.61 173.749 L 48.775 173.98 L 48.775 173.98 Z  M 48.775 190.215 L 48.775 194.292 L 141.61 194.215 L 141.765 189.828 L 48.775 190.215 L 48.775 190.215 Z  M 48.775 206.525 L 48.775 210.602 L 146.634 210.602 L 146.634 206.525 L 48.775 206.525 L 48.775 206.525 Z " id="Compound Path" fill="rgb(227,223,213)" fill-opacity="0.996"/><radialGradient id="_rgradient_29" fx="2.383983196563066" fy="0.5020050332933601" cx="-0.49999647578923456" cy="0.5000050535073894" r="12.672" gradientTransform="matrix(0,46.294468,-60.000423,0,152.833,156.018532)" gradientUnits="userSpaceOnUse"><stop offset="0%" stop-opacity="1" style="stop-color:rgb(144,219,236)"/><stop offset="26.238%" stop-opacity="1" style="stop-color:rgb(85,193,236)"/><stop offset="70.495%" stop-opacity="1" style="stop-color:rgb(54,137,230)"/><stop offset="100%" stop-opacity="1" style="stop-color:rgb(43,99,160)"/></radialGradient><path d=" M 165.58 156.02 C 162.046 156.05 157.596 156.299 152.833 157.11 L 152.833 202.313 L 163.568 202.313 L 163.568 185.959 C 163.568 185.959 184.719 187.922 185.121 172.457 C 185.121 172.457 187.911 155.839 165.58 156.02 L 165.58 156.02 Z  M 166.671 164.071 C 173.184 164.094 174.888 166.405 175.057 170.696 C 175.057 179.694 163.568 177.489 163.568 177.489 L 163.568 164.239 C 164.705 164.152 165.74 164.067 166.671 164.071 Z  M 200.158 168.012 C 197.551 168.13 194.981 168.736 192.694 170.025 C 188.457 172.523 187.928 178.62 190.262 182.605 C 193.179 186.91 198.789 187.529 202.758 190.488 C 204.773 191.826 203.735 195.219 201.416 195.436 C 197.143 196.135 192.846 194.59 189.004 192.836 L 189.004 198.958 C 188.471 200.772 190.699 200.817 191.939 201.306 C 196.554 202.426 201.551 202.594 206.112 201.139 C 210.141 199.953 213.039 195.937 212.822 191.746 C 212.82 190.624 212.607 189.54 212.235 188.476 C 210.647 184.075 205.719 182.64 201.919 180.76 C 199.505 180.142 195.95 177.122 199.152 175.057 C 202.75 173.928 206.469 175.611 209.719 177.07 L 212.067 171.451 C 212.852 169.685 209.044 169.711 207.874 168.935 C 205.406 168.24 202.765 167.895 200.158 168.013 L 200.158 168.012 L 200.158 168.012 Z " id="Compound Path" fill="url(#_rgradient_29)"/><path d=" M 27.438 229.39 C 31.771 229.39 34.728 231.107 36.454 227.173 C 38.099 220.933 37.23 200.304 39.397 200.304 C 41.876 200.304 39.953 221.837 43.22 227.161 C 44.181 228.168 45.444 228.642 47.124 228.326 C 48.873 227.987 50.391 225.873 51.19 222.436 C 55.21 205.051 52.777 156.23 55.233 156.23 C 58.176 156.23 56.044 221.159 61.014 223.194 C 63.03 223.782 63.262 222.199 65.891 222.64 C 68.927 224.923 71.024 223.589 74.905 225.025 C 80.419 227.06 79.585 201.524 82.527 201.524 C 85.47 201.524 84.288 231.83 101.944 230.247 C 104.597 229.965 107.562 224.697 107.945 215.982 C 109.497 180.172 110.007 69.609 112.416 69.609 C 114.919 69.609 115.208 175.707 117.641 214.128 C 118.07 221.035 119.808 225.692 121.36 227.241 C 131.555 237.504 128.983 196.686 133.397 196.686 C 134.868 196.686 142.051 216.638 143.522 216.638 C 144.993 216.638 145.931 82.981 147.403 82.981 C 148.874 82.981 151.191 202.621 152.662 202.621 C 154.134 202.621 155.118 196.969 156.59 196.969 C 158.061 196.969 158.629 226.687 163.042 226.687 C 165.985 226.687 166.367 221.34 167.839 221.34 C 168.522 221.34 170.862 225.737 174.013 225.387 C 175.948 225.172 180.223 228.066 180.999 228.066 C 182.47 228.066 186.05 225.884 187.521 225.884 C 188.993 225.884 191.576 229.535 193.047 229.535 C 194.519 229.535 197.16 212.681 198.631 212.681 C 200.508 212.681 199.894 227.388 204.864 229.682 C 206.648 230.507 214.605 229.138 228.889 230.528" id="Path" fill="none" vector-effect="non-scaling-stroke" stroke-width="1.614" stroke="rgb(51,153,102)" stroke-linejoin="round" stroke-linecap="round" stroke-miterlimit="4"/><path d=" M 26.045 90 L 93.955 90 C 97.108965 90.001655 99.665345 92.558035 99.667 95.712 L 99.667 133.955 C 99.665345 137.108965 97.108965 139.665345 93.955 139.667 L 26.045 139.667 C 22.891035 139.665345 20.334655 137.108965 20.333 133.955 L 20.333 95.712 C 20.334655 92.558035 22.891035 90.001655 26.045 90 L 26.045 90 Z " id="Path" fill="rgb(55,166,230)"/><path d=" M 34.571 126.34 L 30.133 126.34 L 30.133 103.327 L 39.996 103.327 Q 42.1 103.327 43.661 103.951 Q 45.223 104.576 46.111 105.628 Q 46.998 106.68 47.426 107.929 Q 47.853 109.179 47.853 110.592 Q 47.853 113.453 45.864 115.655 Q 43.875 117.858 39.996 117.858 L 34.571 117.858 L 34.571 126.34 L 34.571 126.34 Z  M 34.571 113.65 L 40.193 113.65 Q 41.738 113.65 42.494 112.746 Q 43.25 111.842 43.25 110.592 Q 43.25 109.376 42.527 108.455 Q 41.804 107.535 40.193 107.535 L 34.571 107.535 L 34.571 113.65 L 34.571 113.65 Z  M 51.141 126.34 L 51.141 103.327 L 58.9 103.327 Q 61.793 103.327 64.012 104.297 Q 66.231 105.266 67.513 106.943 Q 68.795 108.62 69.42 110.609 Q 70.045 112.598 70.045 114.833 Q 70.045 116.477 69.699 118.055 Q 69.354 119.633 68.499 121.162 Q 67.645 122.691 66.395 123.825 Q 65.146 124.959 63.173 125.65 Q 61.201 126.34 58.768 126.34 L 51.141 126.34 L 51.141 126.34 Z  M 55.579 122.132 L 59.294 122.132 Q 62.417 122.132 63.93 119.946 Q 65.442 117.759 65.442 114.833 Q 65.442 111.842 63.962 109.688 Q 62.483 107.535 59.656 107.535 L 55.579 107.535 L 55.579 122.132 L 55.579 122.132 Z  M 78.921 126.34 L 74.483 126.34 L 74.483 103.327 L 89.902 103.327 L 89.902 107.535 L 78.921 107.535 L 78.921 112.368 L 85.891 112.368 L 85.891 116.576 L 78.921 116.576 L 78.921 126.34 L 78.921 126.34 Z " fill-rule="evenodd" id="Compound Path" fill="rgb(247,247,247)"/><g opacity="0.4"><linearGradient id="_lgradient_207" x1="0.5166666666666668" y1="0" x2="0.5166666666666666" y2="1.0000000000000002" gradientTransform="matrix(244.65,0,0,228.34,5.68,11.95)" gradientUnits="userSpaceOnUse"><stop offset="0%" stop-opacity="1" style="stop-color:rgb(255,255,255)"/><stop offset="12.5%" stop-opacity="0.09803922" style="stop-color:rgb(255,255,255)"/><stop offset="92.500001%" stop-opacity="0.09803922" style="stop-color:rgb(0,0,0)"/><stop offset="100%" stop-opacity="0.49803922" style="stop-color:rgb(0,0,0)"/></linearGradient><path d=" M 165.06803 11.951234 C 169.395994 11.941409 173.723944 11.990533 178.051908 12.088781 C 181.927398 12.167379 185.802873 12.31475 189.678362 12.540721 C 193.1309 12.737216 196.583423 13.022134 200.026115 13.395476 C 203.085193 13.729518 206.144271 14.181458 209.173842 14.741469 C 211.888645 15.242533 214.57394 15.881143 217.219897 16.6573 C 219.619947 17.354858 221.970814 18.219439 224.242988 19.241215 C 226.357793 20.184394 228.384061 21.304417 230.302129 22.591462 C 232.141505 23.829383 233.862851 25.244151 235.436659 26.80629 C 237.000621 28.378252 238.417046 30.087764 239.656409 31.924995 C 240.944972 33.840824 242.066305 35.864728 243.020409 37.967229 C 244.043389 40.246576 244.908985 42.584873 245.617197 44.972292 C 246.394255 47.615155 247.033606 50.297317 247.535265 53.008956 C 248.095924 56.034984 248.548399 59.080665 248.882828 62.13617 C 249.256611 65.574836 249.541856 69.013506 249.738578 72.462003 C 249.964823 76.323139 250.112361 80.194101 250.200884 84.055237 C 250.289421 88.378131 250.338591 92.701032 250.32876 97.014106 L 250.32876 155.225886 C 250.338591 159.54878 250.289421 163.861854 250.200884 168.184747 C 250.112361 172.05571 249.964823 175.916853 249.738578 179.777981 C 249.541856 183.226485 249.256611 186.674975 248.882828 190.103826 C 248.548399 193.15933 248.095924 196.214835 247.535265 199.240851 C 247.033606 201.942664 246.394255 204.624837 245.617197 207.267703 C 244.908985 209.655115 244.043389 212.003235 243.020409 214.272755 C 242.066305 216.38509 240.944972 218.399156 239.656409 220.314999 C 238.417046 222.152226 237.000621 223.871561 235.436659 225.433697 C 233.862851 226.995832 232.141505 228.410601 230.302129 229.648532 C 228.384061 230.935575 226.357793 232.055598 224.242988 232.998768 C 221.970814 234.020552 219.619947 234.885137 217.219897 235.592507 C 214.57394 236.368672 211.888645 237.007276 209.173842 237.498515 C 206.144271 238.068354 203.085193 238.510465 200.026115 238.844519 C 196.583423 239.21785 193.1309 239.502777 189.678362 239.699269 C 185.802873 239.925235 181.927398 240.072615 178.051908 240.161035 C 173.723944 240.249454 169.395994 240.298581 165.06803 240.288762 L 90.941963 240.288762 C 86.614006 240.298581 82.286049 240.249454 77.9581 240.161035 C 74.08261 240.072615 70.20712 239.925235 66.331638 239.699269 C 62.879108 239.502777 59.426578 239.21785 55.983886 238.844519 C 52.924808 238.510465 49.865733 238.068354 46.836162 237.498515 C 44.121356 237.007276 41.436057 236.368672 38.7901 235.592507 C 36.390053 234.885137 34.039187 234.020552 31.767009 232.998768 C 29.652213 232.055598 27.625943 230.935575 25.707871 229.648532 C 23.868489 228.410601 22.147143 226.995832 20.573343 225.433697 C 19.009377 223.871561 17.592955 222.152226 16.353586 220.314999 C 15.065036 218.399156 13.943701 216.38509 12.989584 214.272755 C 11.966612 212.003235 11.101021 209.655115 10.392811 207.267703 C 9.615746 204.624837 8.976389 201.942664 8.47474 199.240851 C 7.914072 196.214835 7.461604 193.15933 7.127172 190.103826 C 6.753394 186.674975 6.468142 183.226485 6.271417 179.777981 C 6.045183 175.916853 5.897639 172.05571 5.809112 168.184747 C 5.720586 163.861854 5.671405 159.54878 5.681241 155.225886 L 5.681241 97.014106 C 5.671405 92.701032 5.720586 88.378131 5.809112 84.055237 C 5.897639 80.194101 6.045183 76.323139 6.271417 72.462003 C 6.468142 69.013506 6.753394 65.574836 7.127172 62.13617 C 7.461604 59.080665 7.914072 56.034984 8.47474 53.008956 C 8.976389 50.297317 9.615746 47.615155 10.392811 44.972292 C 11.101021 42.584873 11.966612 40.246576 12.989584 37.967229 C 13.943701 35.864728 15.065036 33.840824 16.353586 31.924995 C 17.592955 30.087764 19.009377 28.378252 20.573343 26.80629 C 22.147143 25.244151 23.868489 23.829383 25.707871 22.591462 C 27.625943 21.304417 29.652213 20.184394 31.767009 19.241215 C 34.039187 18.219439 36.390053 17.354858 38.7901 16.6573 C 41.436057 15.881143 44.121356 15.242533 46.836162 14.741469 C 49.865733 14.181458 52.924808 13.729518 55.983886 13.395476 C 59.426578 13.022134 62.879108 12.737216 66.331638 12.540721 C 70.20712 12.31475 74.08261 12.167379 77.9581 12.088781 C 82.286049 11.990533 86.614006 11.941409 90.941963 11.951234 L 165.06803 11.951234 Z  M 165.077876 15.959741 C 169.376317 15.949916 173.674759 15.99904 177.973216 16.087463 C 181.799522 16.175886 185.625827 16.323257 189.452133 16.539402 C 192.835809 16.735898 196.219486 17.010992 199.583486 17.384332 C 202.554026 17.698726 205.514751 18.131016 208.445953 18.681203 C 211.023049 19.152792 213.580483 19.761928 216.098564 20.498786 C 218.321569 21.147221 220.495374 21.952852 222.600334 22.896029 C 224.508571 23.750785 226.338116 24.762737 228.069293 25.922059 C 229.692286 27.012609 231.207063 28.260355 232.59398 29.645648 C 233.980897 31.030941 235.230091 32.543956 236.331763 34.165043 C 237.492434 35.894202 238.505568 37.711787 239.361333 39.607968 C 240.305606 41.720292 241.112187 43.891565 241.761369 46.102139 C 242.508934 48.617282 243.108947 51.161898 243.590914 53.735987 C 244.131912 56.663768 244.564709 59.6112 244.889308 62.578282 C 245.263091 65.938355 245.538505 69.308252 245.735227 72.687976 C 245.951626 76.509812 246.10901 80.321821 246.187687 84.143656 C 246.276225 88.437084 246.325394 92.720685 246.325394 97.014106 C 246.325394 97.014106 246.325394 97.014106 246.325394 97.014106 L 246.325394 155.225886 C 246.325394 155.225886 246.325394 155.225886 246.325394 155.225886 C 246.325394 159.519306 246.276225 163.802907 246.187687 168.096328 C 246.10901 171.918164 245.951626 175.739999 245.735227 179.552015 C 245.538505 182.931739 245.263091 186.301629 244.889308 189.671533 C 244.564709 192.628784 244.131912 195.576216 243.590914 198.503994 C 243.108947 201.078094 242.508934 203.622706 241.761369 206.137845 C 241.112187 208.358253 240.305606 210.5197 239.361333 212.63202 C 238.505568 214.528209 237.492434 216.355617 236.331763 218.074952 C 235.230091 219.705853 233.980897 221.218876 232.59398 222.604172 C 231.207063 223.979634 229.692286 225.227385 228.069293 226.317935 C 226.338116 227.477251 224.508571 228.489201 222.600334 229.343951 C 220.495374 230.296956 218.321569 231.092775 216.098564 231.741198 C 213.580483 232.478056 211.023049 233.087202 208.445953 233.558787 C 205.514751 234.108972 202.554026 234.541264 199.583486 234.865483 C 196.219486 235.228995 192.835809 235.513922 189.452133 235.70058 C 185.625827 235.916726 181.799522 236.073926 177.973216 236.152526 C 173.674759 236.25078 169.376317 236.290072 165.077876 236.290072 C 165.077876 236.290072 165.077876 236.290072 165.06803 236.290072 L 90.941963 236.290072 C 90.932125 236.290072 90.932125 236.290072 90.932125 236.290072 C 86.633683 236.290072 82.335234 236.25078 78.036784 236.152526 C 74.210479 236.073926 70.384173 235.916726 66.557868 235.70058 C 63.174195 235.513922 59.790522 235.228995 56.426518 234.865483 C 53.455967 234.541264 50.495253 234.108972 47.564048 233.558787 C 44.986944 233.087202 42.429517 232.478056 39.911433 231.741198 C 37.688439 231.092775 35.514626 230.296956 33.409665 229.343951 C 31.501429 228.489201 29.671886 227.477251 27.940703 226.317935 C 26.31772 225.227385 24.802935 223.979634 23.416022 222.604172 C 22.029109 221.218876 20.779904 219.705853 19.678243 218.074952 C 18.517564 216.355617 17.504428 214.528209 16.648674 212.63202 C 15.704392 210.5197 14.897819 208.358253 14.248626 206.137845 C 13.50107 203.622706 12.901057 201.078094 12.419081 198.503994 C 11.878086 195.576216 11.445291 192.628784 11.120694 189.671533 C 10.746916 186.301629 10.471501 182.931739 10.274776 179.552015 C 10.058378 175.739999 9.900997 171.918164 9.822307 168.096328 C 9.733781 163.802907 9.6846 159.519306 9.6846 155.225886 C 9.6846 155.225886 9.6846 155.225886 9.6846 155.225886 L 9.6846 97.014106 C 9.6846 97.014106 9.6846 97.014106 9.6846 97.014106 C 9.6846 92.720685 9.733781 88.437084 9.822307 84.143656 C 9.900997 80.321821 10.058378 76.509812 10.274776 72.687976 C 10.471501 69.308252 10.746916 65.938355 11.120694 62.578282 C 11.445291 59.6112 11.878086 56.663768 12.419081 53.735987 C 12.901057 51.161898 13.50107 48.617282 14.248626 46.102139 C 14.897819 43.891565 15.704392 41.720292 16.648674 39.607968 C 17.504428 37.711787 18.517564 35.894202 19.678243 34.165043 C 20.779904 32.543956 22.029109 31.030941 23.416022 29.645648 C 24.802935 28.260355 26.31772 27.012609 27.940703 25.922059 C 29.671886 24.762737 31.501429 23.750785 33.409665 22.896029 C 35.514626 21.952852 37.688439 21.147221 39.911433 20.498786 C 42.429517 19.761928 44.986944 19.152792 47.564048 18.681203 C 50.495253 18.131016 53.455967 17.698726 56.426518 17.384332 C 59.790522 17.010992 63.174195 16.735898 66.557868 16.539402 C 70.384173 16.323257 74.210479 16.175886 78.036784 16.087463 C 82.335234 15.99904 86.633683 15.949916 90.932125 15.959741 C 90.932125 15.959741 90.932125 15.959741 90.941963 15.959741 L 165.06803 15.959741 C 165.077876 15.959741 165.077876 15.959741 165.077876 15.959741 Z " fill-rule="evenodd" id="highlight" fill="url(#_lgradient_207)"/></g></svg>

<svg xmlns="http://www.w3.org/2000/svg" style="isolation:isolate" width="256" height="256"><defs><filter id="a" width="270.648" height="254.338" x="-7.32" y="2.95" filterUnits="userSpaceOnUse"><feGaussianBlur xmlns="http://www.w3.org/2000/svg" in="SourceGraphic" stdDeviation="4.294"/><feOffset xmlns="http://www.w3.org/2000/svg" dy="4" result="pf_100_offsetBlur"/><feFlood xmlns="http://www.w3.org/2000/svg" flood-opacity=".4"/><feComposite xmlns="http://www.w3.org/2000/svg" in2="pf_100_offsetBlur" operator="in" result="pf_100_dropShadow"/><feBlend xmlns="http://www.w3.org/2000/svg" in="SourceGraphic" in2="pf_100_dropShadow"/></filter></defs><path fill="#F7F7F7" d="M165.685 11.947c74.055 0 84.639 10.557 84.639 84.544v59.251c0 73.986-10.584 84.543-84.639 84.543h-75.37c-74.055 0-84.639-10.557-84.639-84.543V96.491c0-73.987 10.584-84.544 84.639-84.544h75.37z" filter="url(#a)"/><path fill="#37A6E6" d="M165.685 11.947c61.912 0 79.462 7.379 83.552 53.032-5.879-.909-249.958-.548-242.514.453 4.015-46.057 21.475-53.485 83.592-53.485h75.37z"/><path fill="#E3DFD5" fill-opacity=".996" d="M114.014 94.625v4.078h97.86v-4.078h-97.86zm0 16.31v4.077h97.86v-4.077h-97.86zm0 16.234v4.078h97.86v-4.078h-97.86zm0 16.31v4.078h97.86v-4.078h-97.86zm-65.239 14.192v4.077h97.859v-4.077H48.775zm0 16.309v4.078l93.067-.155-.232-4.154-92.835.231zm0 16.235v4.077l92.835-.077.155-4.387-92.99.387zm0 16.31v4.077h97.859v-4.077H48.775z"/><radialGradient id="b" cx=".5" cy=".5" r="12.672" fx=".502" fy="-2.384" gradientTransform="matrix(0 46.294 -60 0 152.833 156.019)" gradientUnits="userSpaceOnUse"><stop offset="0%" stop-color="#90dbec"/><stop offset="26.238%" stop-color="#55c1ec"/><stop offset="70.495%" stop-color="#3689e6"/><stop offset="100%" stop-color="#2b63a0"/></radialGradient><path fill="url(#b)" d="M165.58 156.02c-3.534.03-7.984.279-12.747 1.09v45.203h10.735v-16.354s21.151 1.963 21.553-13.502c0 0 2.79-16.618-19.541-16.437zm1.091 8.051c6.513.023 8.217 2.334 8.386 6.625 0 8.998-11.489 6.793-11.489 6.793v-13.25c1.137-.087 2.172-.172 3.103-.168zm33.487 3.941c-2.607.118-5.177.724-7.464 2.013-4.237 2.498-4.766 8.595-2.432 12.58 2.917 4.305 8.527 4.924 12.496 7.883 2.015 1.338.977 4.731-1.342 4.948-4.273.699-8.57-.846-12.412-2.6v6.122c-.533 1.814 1.695 1.859 2.935 2.348 4.615 1.12 9.612 1.288 14.173-.167 4.029-1.186 6.927-5.202 6.71-9.393-.002-1.122-.215-2.206-.587-3.27-1.588-4.401-6.516-5.836-10.316-7.716-2.414-.618-5.969-3.638-2.767-5.703 3.598-1.129 7.317.554 10.567 2.013l2.348-5.619c.785-1.766-3.023-1.74-4.193-2.516-2.468-.695-5.109-1.04-7.716-.922v-.001z"/><path fill="none" stroke="#396" stroke-linecap="round" stroke-linejoin="round" stroke-width="1.614" d="M27.438 229.39c4.333 0 7.29 1.717 9.016-2.217 1.645-6.24.776-26.869 2.943-26.869 2.479 0 .556 21.533 3.823 26.857.961 1.007 2.224 1.481 3.904 1.165 1.749-.339 3.267-2.453 4.066-5.89 4.02-17.385 1.587-66.206 4.043-66.206 2.943 0 .811 64.929 5.781 66.964 2.016.588 2.248-.995 4.877-.554 3.036 2.283 5.133.949 9.014 2.385 5.514 2.035 4.68-23.501 7.622-23.501 2.943 0 1.761 30.306 19.417 28.723 2.653-.282 5.618-5.55 6.001-14.265 1.552-35.81 2.062-146.373 4.471-146.373 2.503 0 2.792 106.098 5.225 144.519.429 6.907 2.167 11.564 3.719 13.113 10.195 10.263 7.623-30.555 12.037-30.555 1.471 0 8.654 19.952 10.125 19.952s2.409-133.657 3.881-133.657c1.471 0 3.788 119.64 5.259 119.64 1.472 0 2.456-5.652 3.928-5.652 1.471 0 2.039 29.718 6.452 29.718 2.943 0 3.325-5.347 4.797-5.347.683 0 3.023 4.397 6.174 4.047 1.935-.215 6.21 2.679 6.986 2.679 1.471 0 5.051-2.182 6.522-2.182 1.472 0 4.055 3.651 5.526 3.651 1.472 0 4.113-16.854 5.584-16.854 1.877 0 1.263 14.707 6.233 17.001 1.784.825 9.741-.544 24.025.846" vector-effect="non-scaling-stroke"/><g opacity=".4"><linearGradient id="c" x1=".517" x2=".517" y2="1"><stop offset="0%" stop-color="#fff"/><stop offset="12.5%" stop-opacity=".098" stop-color="#fff"/><stop offset="92.5%" stop-opacity=".098"/><stop offset="100%" stop-opacity=".498"/></linearGradient><path fill="none" stroke="url(#c)" stroke-linecap="round" stroke-linejoin="round" stroke-width="4.077" d="M165.685 11.947c74.055 0 84.639 10.557 84.639 84.544v59.251c0 73.986-10.584 84.543-84.639 84.543h-75.37c-74.055 0-84.639-10.557-84.639-84.543V96.491c0-73.987 10.584-84.544 84.639-84.544h75.37z" vector-effect="non-scaling-stroke"/></g><path fill="#37A6E6" d="M26.045 90h67.91a5.715 5.715 0 0 1 5.712 5.712v38.243a5.715 5.715 0 0 1-5.712 5.712h-67.91a5.715 5.715 0 0 1-5.712-5.712V95.712A5.715 5.715 0 0 1 26.045 90z"/><path fill="#F7F7F7" fill-rule="evenodd" d="M34.571 126.34h-4.438v-23.013h9.863q2.104 0 3.665.624 1.562.625 2.45 1.677.887 1.052 1.315 2.301.427 1.25.427 2.663 0 2.861-1.989 5.063-1.989 2.203-5.868 2.203h-5.425v8.482zm0-12.69h5.622q1.545 0 2.301-.904.756-.904.756-2.154 0-1.216-.723-2.137-.723-.92-2.334-.92h-5.622v6.115zm16.57 12.69v-23.013H58.9q2.893 0 5.112.97 2.219.969 3.501 2.646t1.907 3.666q.625 1.989.625 4.224 0 1.644-.346 3.222-.345 1.578-1.2 3.107-.854 1.529-2.104 2.663-1.249 1.134-3.222 1.825-1.972.69-4.405.69h-7.627zm4.438-4.208h3.715q3.123 0 4.636-2.186 1.512-2.187 1.512-5.113 0-2.991-1.48-5.145-1.479-2.153-4.306-2.153h-4.077v14.597zm23.342 4.208h-4.438v-23.013h15.419v4.208H78.921v4.833h6.97v4.208h-6.97v9.764z"/></svg>
